root/usr/share/gnome-shell/extensions/arc-menu@linxgem33.com/media/layouts/categories/launcher-symbolic.svg

<?xml version="1.0" encoding="UTF-8" standalone="no"?>
<svg
   xmlns:dc="http://purl.org/dc/elements/1.1/"
   xmlns:cc="http://creativecommons.org/ns#"
   xmlns:rdf="http://www.w3.org/1999/02/22-rdf-syntax-ns#"
   xmlns:svg="http://www.w3.org/2000/svg"
   xmlns="http://www.w3.org/2000/svg"
   xmlns:xlink="http://www.w3.org/1999/xlink"
   xmlns:sodipodi="http://sodipodi.sourceforge.net/DTD/sodipodi-0.dtd"
   xmlns:inkscape="http://www.inkscape.org/namespaces/inkscape"
   inkscape:version="1.0 (4035a4fb49, 2020-05-01)"
   sodipodi:docname="launcher-symbolic.svg"
   id="svg2"
   version="1.1"
   width="512"
   height="512">
  <sodipodi:namedview
     inkscape:current-layer="svg2"
     inkscape:window-maximized="1"
     inkscape:window-y="40"
     inkscape:window-x="0"
     inkscape:cy="1136.6481"
     inkscape:cx="-254.21142"
     inkscape:zoom="0.25480703"
     showgrid="false"
     id="namedview55"
     inkscape:window-height="898"
     inkscape:window-width="1920"
     inkscape:pageshadow="2"
     inkscape:pageopacity="0"
     guidetolerance="10"
     gridtolerance="10"
     objecttolerance="10"
     borderopacity="1"
     bordercolor="#666666"
     pagecolor="#ffffff" />
  <metadata
     id="metadata8">
    <rdf:RDF>
      <cc:Work
         rdf:about="">
        <dc:format>image/svg+xml</dc:format>
        <dc:type
           rdf:resource="http://purl.org/dc/dcmitype/StillImage" />
        <dc:title />
      </cc:Work>
    </rdf:RDF>
  </metadata>
  <defs
     id="defs6">
    <linearGradient
       id="linearGradient3764"
       x1="1"
       x2="47"
       gradientUnits="userSpaceOnUse"
       gradientTransform="matrix(0,-1,1,0,-1.5e-6,47.999998)">
      <stop
         stop-color="#e4e4e4"
         stop-opacity="1"
         id="stop7" />
      <stop
         offset="1"
         stop-color="#eee"
         stop-opacity="1"
         id="stop9" />
    </linearGradient>
    <clipPath
       id="clipPath-365326813">
      <g
         transform="translate(0,-1004.3622)"
         id="g12">
        <path
           d="m -24,13 c 0,1.105 -0.672,2 -1.5,2 -0.828,0 -1.5,-0.895 -1.5,-2 0,-1.105 0.672,-2 1.5,-2 0.828,0 1.5,0.895 1.5,2 z"
           transform="matrix(15.333333,0,0,11.5,414.99999,878.8622)"
           id="path14"
           style="fill:#1890d0" />
      </g>
    </clipPath>
    <clipPath
       id="clipPath-370729992">
      <g
         transform="translate(0,-1004.3622)"
         id="g17">
        <path
           d="m -24,13 c 0,1.105 -0.672,2 -1.5,2 -0.828,0 -1.5,-0.895 -1.5,-2 0,-1.105 0.672,-2 1.5,-2 0.828,0 1.5,0.895 1.5,2 z"
           transform="matrix(15.333333,0,0,11.5,414.99999,878.8622)"
           id="path19"
           style="fill:#1890d0" />
      </g>
    </clipPath>
    <defs
       id="defs5">
      <rect
         height="1024"
         width="1024"
         id="SVGID_1_" />
    </defs>
    <clipPath
       id="SVGID_2_">
      <use
         id="use9"
         overflow="visible"
         xlink:href="#SVGID_1_" />
    </clipPath>
    <defs
       id="defs38">
      <rect
         id="SVGID_8_"
         width="1024"
         height="1024"
         x="0"
         y="0" />
    </defs>
    <clipPath
       id="SVGID_9_">
      <use
         xlink:href="#SVGID_8_"
         overflow="visible"
         id="use42"
         style="overflow:visible"
         x="0"
         y="0"
         width="100%"
         height="100%" />
    </clipPath>
    <defs
       id="defs44">
      <filter
         id="Adobe_OpacityMaskFilter"
         filterUnits="userSpaceOnUse"
         x="305.03299"
         y="293.44199"
         width="413.93399"
         height="413.96701">
        <feFlood
           result="back"
           id="feFlood47" />
        <feBlend
           in="SourceGraphic"
           in2="back"
           mode="normal"
           id="feBlend49" />
      </filter>
    </defs>
    <mask
       maskUnits="userSpaceOnUse"
       x="305.033"
       y="293.442"
       width="413.934"
       height="413.967"
       id="SVGID_10_">
      <g
         id="g52"
         style="filter:url(#Adobe_OpacityMaskFilter)">
        <g
           enable-background="new    "
           id="g54">
          <g
             id="g56">
            <defs
               id="defs58">
              <path
                 id="SVGID_11_"
                 d="m 513.458,309.257 c 91.063,0 164.903,76.897 164.903,171.722 0,94.833 -73.84,171.727 -164.903,171.727 -91.047,0 -164.89,-76.894 -164.89,-171.727 0,-94.825 73.843,-171.722 164.89,-171.722" />
            </defs>
            <clipPath
               id="SVGID_12_"
               clip-path="url(#SVGID_9_)">
              <use
                 xlink:href="#SVGID_11_"
                 overflow="visible"
                 id="use62"
                 style="overflow:visible"
                 x="0"
                 y="0"
                 width="100%"
                 height="100%" />
            </clipPath>
            <linearGradient
               id="SVGID_13_"
               gradientUnits="userSpaceOnUse"
               x1="0"
               y1="1024"
               x2="1"
               y2="1024"
               gradientTransform="matrix(-10.9559,383.4525,383.4525,10.9559,-392132.59,-11061.132)">
              <stop
                 offset="0"
                 style="stop-color:#1C1B18"
                 id="stop65" />
              <stop
                 offset="0.1871"
                 style="stop-color:#4B4846"
                 id="stop67" />
              <stop
                 offset="0.3677"
                 style="stop-color:#7F7B79"
                 id="stop69" />
              <stop
                 offset="0.5336"
                 style="stop-color:#B0ADAD"
                 id="stop71" />
              <stop
                 offset="0.6817"
                 style="stop-color:#D9D8D8"
                 id="stop73" />
              <stop
                 offset="0.8068"
                 style="stop-color:#F5F5F5"
                 id="stop75" />
              <stop
                 offset="0.8938"
                 style="stop-color:#FFFFFF"
                 id="stop77" />
              <stop
                 offset="1"
                 style="stop-color:#FFFFFF"
                 id="stop79" />
            </linearGradient>
            <polygon
               clip-path="url(#SVGID_12_)"
               points="338.763,652.426 348.837,299.842 688.166,309.537 678.092,662.121 "
               id="polygon81"
               style="fill:url(#SVGID_13_)" />
          </g>
        </g>
      </g>
    </mask>
    <filter
       style="color-interpolation-filters:sRGB;"
       id="filter139">
      <feFlood
         flood-opacity="0.498039"
         flood-color="rgb(0,0,0)"
         result="flood"
         id="feFlood129" />
      <feComposite
         in="flood"
         in2="SourceGraphic"
         operator="in"
         result="composite1"
         id="feComposite131" />
      <feGaussianBlur
         in="composite1"
         stdDeviation="3"
         result="blur"
         id="feGaussianBlur133" />
      <feOffset
         dx="2"
         dy="2"
         result="offset"
         id="feOffset135" />
      <feComposite
         in="SourceGraphic"
         in2="offset"
         operator="over"
         result="composite2"
         id="feComposite137" />
    </filter>
  </defs>
  <g
     transform="matrix(1.2161718,0,0,1.2161718,-59.434531,-64.981176)"
     id="g62">
    <path
       style="fill:#ecf0f1;fill-opacity:1;filter:url(#filter139)"
       d="M 242.88306,465.05978 C 214.91529,461.87171 196.18722,456.83741 174.73431,446.74069 112.2511,417.33323 69.321844,357.99673 60.119498,288.32094 58.095827,272.99865 58.761564,244.71548 61.507899,229.33622 75.689371,149.92109 133.2641,87.414158 210.19319,67.91364 c 18.40006,-4.664179 26.57957,-5.594971 49.1669,-5.594971 22.5553,0 30.77404,0.932616 49.0541,5.566371 76.98992,19.515939 135.81073,83.91708 149.1815,163.33427 3.44166,20.4421 2.76363,53.93432 -1.52486,75.32357 -3.98452,19.87309 -14.67949,46.51666 -26.26716,65.43734 -35.28067,57.60729 -102.94016,94.36324 -172.19103,93.54262 -6.54772,-0.0776 -13.17603,-0.28597 -14.72958,-0.46306 z m 40.01565,-20.54167 c 14.11828,-1.90877 22.43576,-3.82184 35.30792,-8.12108 C 413.22073,404.66275 464.28269,302.29326 432.52529,207.20992 400.79101,112.19579 298.42154,61.13381 203.33819,92.891208 108.32408,124.62554 57.262098,226.99502 89.019495,322.07837 c 22.064155,66.06115 78.577935,112.5725 148.685075,122.36916 12.00126,1.67703 33.0686,1.70993 45.19414,0.0706 z"
       id="path2984" />
    <circle
       r="189.07317"
       cy="263.92749"
       cx="259.36676"
       id="path77-3"
       style="fill:#00aad4;fill-opacity:1" />
    <path
       id="path77"
       d="M 259.36719,74.853516 A 189.07317,189.07317 0 0 0 70.292969,263.92773 189.07317,189.07317 0 0 0 259.36719,453 189.07317,189.07317 0 0 0 448.43945,263.92773 189.07317,189.07317 0 0 0 259.36719,74.853516 Z M 158.84961,166.87695 h 83.1875 c 5.74289,0 10.39648,4.65554 10.39648,10.39844 v 62.375 a 25.256775,25.256775 0 0 0 -17.33203,17.3457 h -76.25195 c -5.7429,0 -10.39844,-4.65554 -10.39844,-10.39843 v -69.32227 c 0,-5.7429 4.65554,-10.39844 10.39844,-10.39844 z m 117.84766,0 h 83.18554 c 5.74289,0 10.39844,4.65554 10.39844,10.39844 v 69.32227 c 0,5.74289 -4.65555,10.39843 -10.39844,10.39843 h -76.23828 a 25.256775,25.256775 0 0 0 -17.3457,-17.33398 v -62.38672 c 0,-5.7429 4.65554,-10.39844 10.39844,-10.39844 z m 7.74609,6.97071 c -6.74196,0 -11.8418,5.09789 -11.8418,11.83984 0,6.70085 5.14048,11.7168 12.04688,11.7168 3.82318,0 6.28948,-1.27393 8.67383,-4.48047 v 3.94531 h 3.04101 v -22.48633 h -3.04101 v 3.98828 c -2.21991,-3.12432 -4.9735,-4.52343 -8.87891,-4.52343 z m 0.082,2.79687 c 4.93314,0 8.79688,3.86355 8.79688,8.87891 0,5.09758 -3.7819,9.08594 -8.63282,9.08594 -5.09758,-10e-6 -9.0039,-3.98827 -9.0039,-9.12696 0,-4.89203 3.9478,-8.83789 8.83984,-8.83789 z m -125.67578,94.21485 h 76.23828 a 25.256775,25.256775 0 0 0 17.3457,17.33203 v 62.38867 c 0,5.7429 -4.65359,10.39844 -10.39648,10.39844 h -83.1875 c -5.7429,0 -10.39844,-4.65554 -10.39844,-10.39844 v -69.32227 c 0,-5.7429 4.65554,-10.39843 10.39844,-10.39843 z m 124.78125,0 h 76.25195 c 5.74289,-10e-6 10.39844,4.65553 10.39844,10.39843 v 69.32227 c 0,5.7429 -4.65555,10.39844 -10.39844,10.39844 h -83.18554 c -5.7429,0 -10.39844,-4.65554 -10.39844,-10.39844 v -62.375 a 25.256775,25.256775 0 0 0 17.33203,-17.3457 z"
       style="fill:#383a3c;fill-opacity:1" />
    <rect
       y="172.12389"
       x="270.74747"
       height="33.232597"
       width="38.549816"
       id="rect7"
       style="fill:#00aad4;fill-opacity:1;stroke-width:0.433263" />
    <path
       id="path79"
       d="m 259.36676,241.99356 a 21.933515,21.933515 0 0 0 -21.93393,21.93393 21.933515,21.933515 0 0 0 21.93393,21.93392 21.933515,21.933515 0 0 0 21.93392,-21.93392 21.933515,21.933515 0 0 0 -21.93392,-21.93393 z m -1.14494,9.82119 c 3.74012,0 6.37768,1.338 8.50363,4.33009 v -3.81813 h 2.91352 v 21.53451 h -2.91352 v -3.7792 c -2.28343,3.07083 -4.64593,4.29116 -8.3073,4.29116 -6.61409,0 -11.53478,-4.80274 -11.53478,-11.21998 0,-6.45661 4.88184,-11.33845 11.33845,-11.33845 z m 0.0787,2.67658 c -4.68498,0 -8.4647,3.77972 -8.4647,8.4647 0,4.9212 3.74027,8.73972 8.6221,8.73972 4.64561,0 8.26753,-3.81812 8.26753,-8.69995 0,-4.80309 -3.70058,-8.50447 -8.42493,-8.50447 z"
       style="fill:#b7c4c8;fill-opacity:1;stroke-width:0.433263" />
  </g>
</svg>

<?xml version="1.0" encoding="UTF-8" standalone="no"?>
<svg
   xmlns:dc="http://purl.org/dc/elements/1.1/"
   xmlns:cc="http://creativecommons.org/ns#"
   xmlns:rdf="http://www.w3.org/1999/02/22-rdf-syntax-ns#"
   xmlns:svg="http://www.w3.org/2000/svg"
   xmlns="http://www.w3.org/2000/svg"
   xmlns:xlink="http://www.w3.org/1999/xlink"
   height="512"
   width="512"
   version="1.1"
   id="svg2">
  <metadata
     id="metadata8">
    <rdf:RDF>
      <cc:Work
         rdf:about="">
        <dc:format>image/svg+xml</dc:format>
        <dc:type
           rdf:resource="http://purl.org/dc/dcmitype/StillImage" />
        <dc:title></dc:title>
      </cc:Work>
    </rdf:RDF>
  </metadata>
  <defs
     id="defs6">
    <linearGradient
       gradientTransform="matrix(0,-1,1,0,-1.5e-6,47.999998)"
       gradientUnits="userSpaceOnUse"
       x2="47"
       x1="1"
       id="linearGradient3764">
      <stop
         id="stop7"
         stop-opacity="1"
         stop-color="#e4e4e4" />
      <stop
         id="stop9"
         stop-opacity="1"
         stop-color="#eee"
         offset="1" />
    </linearGradient>
    <clipPath
       id="clipPath-365326813">
      <g
         id="g12"
         transform="translate(0,-1004.3622)">
        <path
           style="fill:#1890d0"
           id="path14"
           transform="matrix(15.333333,0,0,11.5,414.99999,878.8622)"
           d="m -24,13 c 0,1.105 -0.672,2 -1.5,2 -0.828,0 -1.5,-0.895 -1.5,-2 0,-1.105 0.672,-2 1.5,-2 0.828,0 1.5,0.895 1.5,2 z" />
      </g>
    </clipPath>
    <clipPath
       id="clipPath-370729992">
      <g
         id="g17"
         transform="translate(0,-1004.3622)">
        <path
           style="fill:#1890d0"
           id="path19"
           transform="matrix(15.333333,0,0,11.5,414.99999,878.8622)"
           d="m -24,13 c 0,1.105 -0.672,2 -1.5,2 -0.828,0 -1.5,-0.895 -1.5,-2 0,-1.105 0.672,-2 1.5,-2 0.828,0 1.5,0.895 1.5,2 z" />
      </g>
    </clipPath>
    <defs
       id="defs5">
      <rect
         id="SVGID_1_"
         width="1024"
         height="1024" />
    </defs>
    <clipPath
       id="SVGID_2_">
      <use
         xlink:href="#SVGID_1_"
         overflow="visible"
         id="use9" />
    </clipPath>
    <defs
       id="defs38">
      <rect
         y="0"
         x="0"
         height="1024"
         width="1024"
         id="SVGID_8_" />
    </defs>
    <clipPath
       id="SVGID_9_">
      <use
         height="100%"
         width="100%"
         y="0"
         x="0"
         style="overflow:visible"
         id="use42"
         overflow="visible"
         xlink:href="#SVGID_8_" />
    </clipPath>
    <defs
       id="defs44">
      <filter
         height="413.96701"
         width="413.93399"
         y="293.44199"
         x="305.03299"
         filterUnits="userSpaceOnUse"
         id="Adobe_OpacityMaskFilter">
        <feFlood
           id="feFlood47"
           result="back" />
        <feBlend
           id="feBlend49"
           mode="normal"
           in2="back"
           in="SourceGraphic" />
      </filter>
    </defs>
    <mask
       id="SVGID_10_"
       height="413.967"
       width="413.934"
       y="293.442"
       x="305.033"
       maskUnits="userSpaceOnUse">
      <g
         style="filter:url(#Adobe_OpacityMaskFilter)"
         id="g52">
        <g
           id="g54"
           enable-background="new    ">
          <g
             id="g56">
            <defs
               id="defs58">
              <path
                 d="m 513.458,309.257 c 91.063,0 164.903,76.897 164.903,171.722 0,94.833 -73.84,171.727 -164.903,171.727 -91.047,0 -164.89,-76.894 -164.89,-171.727 0,-94.825 73.843,-171.722 164.89,-171.722"
                 id="SVGID_11_" />
            </defs>
            <clipPath
               clip-path="url(#SVGID_9_)"
               id="SVGID_12_">
              <use
                 height="100%"
                 width="100%"
                 y="0"
                 x="0"
                 style="overflow:visible"
                 id="use62"
                 overflow="visible"
                 xlink:href="#SVGID_11_" />
            </clipPath>
            <linearGradient
               gradientTransform="matrix(-10.9559,383.4525,383.4525,10.9559,-392132.59,-11061.132)"
               y2="1024"
               x2="1"
               y1="1024"
               x1="0"
               gradientUnits="userSpaceOnUse"
               id="SVGID_13_">
              <stop
                 id="stop65"
                 style="stop-color:#1C1B18"
                 offset="0" />
              <stop
                 id="stop67"
                 style="stop-color:#4B4846"
                 offset="0.1871" />
              <stop
                 id="stop69"
                 style="stop-color:#7F7B79"
                 offset="0.3677" />
              <stop
                 id="stop71"
                 style="stop-color:#B0ADAD"
                 offset="0.5336" />
              <stop
                 id="stop73"
                 style="stop-color:#D9D8D8"
                 offset="0.6817" />
              <stop
                 id="stop75"
                 style="stop-color:#F5F5F5"
                 offset="0.8068" />
              <stop
                 id="stop77"
                 style="stop-color:#FFFFFF"
                 offset="0.8938" />
              <stop
                 id="stop79"
                 style="stop-color:#FFFFFF"
                 offset="1" />
            </linearGradient>
            <polygon
               style="fill:url(#SVGID_13_)"
               id="polygon81"
               points="338.763,652.426 348.837,299.842 688.166,309.537 678.092,662.121 "
               clip-path="url(#SVGID_12_)" />
          </g>
        </g>
      </g>
    </mask>
    <filter
       id="filter139"
       style="color-interpolation-filters:sRGB;">
      <feFlood
         id="feFlood129"
         result="flood"
         flood-color="rgb(0,0,0)"
         flood-opacity="0.498039" />
      <feComposite
         id="feComposite131"
         result="composite1"
         operator="in"
         in2="SourceGraphic"
         in="flood" />
      <feGaussianBlur
         id="feGaussianBlur133"
         result="blur"
         stdDeviation="3"
         in="composite1" />
      <feOffset
         id="feOffset135"
         result="offset"
         dy="2"
         dx="2" />
      <feComposite
         id="feComposite137"
         result="composite2"
         operator="over"
         in2="offset"
         in="SourceGraphic" />
    </filter>
  </defs>
  <path
     style="fill:#ecf0f1;fill-opacity:1;filter:url(#filter139)"
     d="M 242.88306,465.05978 C 214.91529,461.87171 196.18722,456.83741 174.73431,446.74069 112.2511,417.33323 69.321844,357.99673 60.119498,288.32094 58.095827,272.99865 58.761564,244.71548 61.507899,229.33622 75.689371,149.92109 133.2641,87.414158 210.19319,67.91364 c 18.40006,-4.664179 26.57957,-5.594971 49.1669,-5.594971 22.5553,0 30.77404,0.932616 49.0541,5.566371 76.98992,19.515939 135.81073,83.91708 149.1815,163.33427 3.44166,20.4421 2.76363,53.93432 -1.52486,75.32357 -3.98452,19.87309 -14.67949,46.51666 -26.26716,65.43734 -35.28067,57.60729 -102.94016,94.36324 -172.19103,93.54262 -6.54772,-0.0776 -13.17603,-0.28597 -14.72958,-0.46306 z m 40.01565,-20.54167 c 14.11828,-1.90877 22.43576,-3.82184 35.30792,-8.12108 C 413.22073,404.66275 464.28269,302.29326 432.52529,207.20992 400.79101,112.19579 298.42154,61.13381 203.33819,92.891208 108.32408,124.62554 57.262098,226.99502 89.019495,322.07837 c 22.064155,66.06115 78.577935,112.5725 148.685075,122.36916 12.00126,1.67703 33.0686,1.70993 45.19414,0.0706 z"
     id="path2984" />
  <circle
     r="189.07317"
     cy="263.92749"
     cx="259.36676"
     id="path77-3"
     style="fill:#00aad4;fill-opacity:1" />
  <path
     id="path77"
     d="M 259.36719 74.853516 A 189.07317 189.07317 0 0 0 70.292969 263.92773 A 189.07317 189.07317 0 0 0 259.36719 453 A 189.07317 189.07317 0 0 0 448.43945 263.92773 A 189.07317 189.07317 0 0 0 259.36719 74.853516 z M 158.84961 166.87695 L 242.03711 166.87695 C 247.78 166.87695 252.43359 171.53249 252.43359 177.27539 L 252.43359 239.65039 A 25.256775 25.256775 0 0 0 235.10156 256.99609 L 158.84961 256.99609 C 153.10671 256.99609 148.45117 252.34055 148.45117 246.59766 L 148.45117 177.27539 C 148.45117 171.53249 153.10671 166.87695 158.84961 166.87695 z M 276.69727 166.87695 L 359.88281 166.87695 C 365.6257 166.87695 370.28125 171.53249 370.28125 177.27539 L 370.28125 246.59766 C 370.28125 252.34055 365.6257 256.99609 359.88281 256.99609 L 283.64453 256.99609 A 25.256775 25.256775 0 0 0 266.29883 239.66211 L 266.29883 177.27539 C 266.29883 171.53249 270.95437 166.87695 276.69727 166.87695 z M 284.44336 173.84766 C 277.7014 173.84766 272.60156 178.94555 272.60156 185.6875 C 272.60156 192.38835 277.74204 197.4043 284.64844 197.4043 C 288.47162 197.4043 290.93792 196.13037 293.32227 192.92383 L 293.32227 196.86914 L 296.36328 196.86914 L 296.36328 174.38281 L 293.32227 174.38281 L 293.32227 178.37109 C 291.10236 175.24677 288.34877 173.84766 284.44336 173.84766 z M 284.52539 176.64453 C 289.45853 176.64453 293.32227 180.50808 293.32227 185.52344 C 293.32227 190.62102 289.54037 194.60938 284.68945 194.60938 C 279.59187 194.60937 275.68555 190.62111 275.68555 185.48242 C 275.68555 180.59039 279.63335 176.64453 284.52539 176.64453 z M 158.84961 270.85938 L 235.08789 270.85938 A 25.256775 25.256775 0 0 0 252.43359 288.19141 L 252.43359 350.58008 C 252.43359 356.32298 247.78 360.97852 242.03711 360.97852 L 158.84961 360.97852 C 153.10671 360.97852 148.45117 356.32298 148.45117 350.58008 L 148.45117 281.25781 C 148.45117 275.51491 153.10671 270.85938 158.84961 270.85938 z M 283.63086 270.85938 L 359.88281 270.85938 C 365.6257 270.85937 370.28125 275.51491 370.28125 281.25781 L 370.28125 350.58008 C 370.28125 356.32298 365.6257 360.97852 359.88281 360.97852 L 276.69727 360.97852 C 270.95437 360.97852 266.29883 356.32298 266.29883 350.58008 L 266.29883 288.20508 A 25.256775 25.256775 0 0 0 283.63086 270.85938 z "
     style="fill:#383a3c;fill-opacity:1" />
  <rect
     y="172.12389"
     x="270.74747"
     height="33.232597"
     width="38.549816"
     id="rect7"
     style="fill:#00aad4;fill-opacity:1;stroke-width:0.43326271" />
  <path
     id="path79"
     d="m 259.36676,241.99356 a 21.933515,21.933515 0 0 0 -21.93393,21.93393 21.933515,21.933515 0 0 0 21.93393,21.93392 21.933515,21.933515 0 0 0 21.93392,-21.93392 21.933515,21.933515 0 0 0 -21.93392,-21.93393 z m -1.14494,9.82119 c 3.74012,0 6.37768,1.338 8.50363,4.33009 v -3.81813 h 2.91352 v 21.53451 h -2.91352 v -3.7792 c -2.28343,3.07083 -4.64593,4.29116 -8.3073,4.29116 -6.61409,0 -11.53478,-4.80274 -11.53478,-11.21998 0,-6.45661 4.88184,-11.33845 11.33845,-11.33845 z m 0.0787,2.67658 c -4.68498,0 -8.4647,3.77972 -8.4647,8.4647 0,4.9212 3.74027,8.73972 8.6221,8.73972 4.64561,0 8.26753,-3.81812 8.26753,-8.69995 0,-4.80309 -3.70058,-8.50447 -8.42493,-8.50447 z"
     style="fill:#b7c4c8;fill-opacity:1;stroke-width:0.43326271" />
</svg>
